X:1
T:Humours of Whiskey
C:Traditional
M:9/8
K:D
|: {a}gfe {g}fB{G}B {g}fB{G}B | {a}gfe {g}fB{G}B {g}fga | gfe {g}fB{G}B {g}fB{G}B | agf {g}efd {cd}cBA :|
%
|:{Gdc}d2e {g}fdf {g}ec{d}A | {Gdc}d2e {g}fed {g}fga | {Gdc}d2e {g}fdf {g}ec{d}A | agf {g}efd {cd}cBA :|
